images/cheked-card1.svg

<svg width="40" height="40" viewBox="0 0 40 40" fill="none" xmlns="http://www.w3.org/2000/svg">
<g id="trader 1">
<g id="OUTLINE">
<path id="Vector" d="M16.25 11.875H18.125V13.125H16.25V11.875Z" fill="black"/>
<path id="Vector_2" d="M21.875 11.875H23.75V13.125H21.875V11.875Z" fill="black"/>
<path id="Vector_3" d="M20.0301 16.0851L20.4268 16.2173L20.8221 15.0314L20.4254 14.8991C20.3366 14.8696 20.2556 14.8204 20.1884 14.7553C20.1211 14.6902 20.0693 14.6109 20.0368 14.5231C20.0044 14.4353 19.992 14.3414 20.0007 14.2482C20.0094 14.155 20.0389 14.0649 20.0871 13.9847L21.1604 12.1959L20.0885 11.5527L19.0153 13.3415C18.8708 13.5823 18.7823 13.8524 18.7562 14.132C18.7301 14.4116 18.7671 14.6934 18.8645 14.9568C18.9619 15.2201 19.1172 15.4582 19.319 15.6535C19.5207 15.8488 19.7638 15.9963 20.0301 16.0851Z" fill="black"/>
<path id="Vector_4" d="M17.9199 18.7379C18.5354 19.1498 19.2594 19.3697 20 19.3697C20.7406 19.3697 21.4646 19.1498 22.0801 18.7379L22.2217 18.6436L21.5283 17.6035L21.3868 17.6979C20.9764 17.9725 20.4938 18.1191 20 18.1191C19.5062 18.1191 19.0236 17.9725 18.6132 17.6979L18.4717 17.6035L17.7783 18.6436L17.9199 18.7379Z" fill="black"/>
<path id="Vector_5" d="M9.99414 38.6738L10.619 33.6752L11.859 33.8302L11.2341 38.8288L9.99414 38.6738Z" fill="black"/>
<path id="Vector_6" d="M36.8748 26.2494H33.7498V24.3744C33.7492 23.8773 33.5515 23.4007 33.2 23.0492C32.8485 22.6977 32.3719 22.5 31.8748 22.4994H29.3748C28.8777 22.5 28.4011 22.6977 28.0496 23.0492C27.6981 23.4007 27.5003 23.8773 27.4998 24.3744V24.6962L26.0287 24.2365C25.6972 24.1339 25.4008 23.941 25.1729 23.6793C24.945 23.4176 24.7945 23.0975 24.7385 22.7551L24.3743 20.5696C25.0784 19.7967 25.6131 18.885 25.944 17.8932L26.7802 15.3845C27.1314 15.1004 27.3979 14.7255 27.551 14.3006C27.7041 13.8757 27.7379 13.4169 27.6487 12.9742L28.5993 11.0729C28.6727 10.9259 28.7324 10.7725 28.7776 10.6146L29.5683 7.84724C29.7243 7.30583 29.7036 6.72878 29.5092 6.19993C29.3148 5.67109 28.9569 5.21802 28.4873 4.90656L28.1847 4.70492C28.03 4.60197 27.8973 4.46929 27.7944 4.3146L27.373 3.68258C27.1308 3.31829 26.8021 3.0196 26.4164 2.81316C26.0306 2.60672 25.5998 2.49893 25.1623 2.49941H23.1771C22.8727 2.49878 22.5767 2.40008 22.3329 2.21797L22.1516 2.08201C21.526 1.6095 20.7804 1.32173 19.9996 1.25133C19.2187 1.18092 18.4338 1.3307 17.7337 1.68368L16.3993 2.35087C16.2039 2.44831 15.9885 2.49915 15.7701 2.49941H14.4271C13.8524 2.50061 13.2934 2.68694 12.8329 3.0308L11.9541 3.6899C11.5353 4.00312 11.2184 4.43321 11.0434 4.92607C10.8684 5.41893 10.8431 5.95254 10.9707 6.45976L11.0504 6.77897C11.0978 6.96917 11.105 7.16715 11.0715 7.36028C11.0381 7.55341 10.9647 7.73745 10.8562 7.90064C10.5643 8.33674 10.4085 8.84967 10.4085 9.37441C10.4085 9.89916 10.5643 10.4121 10.8562 10.8482L11.2846 11.4907C11.3169 11.5393 11.3462 11.5899 11.3723 11.6421C11.3846 11.6666 11.3985 11.6903 11.4139 11.7131L12.3335 13.0707C12.2645 13.5002 12.31 13.9404 12.4655 14.3466C12.6211 14.7529 12.8811 15.1109 13.2193 15.3845L14.0556 17.8931C14.3865 18.8849 14.9212 19.7966 15.6253 20.5696L15.261 22.7551C15.205 23.0975 15.0546 23.4176 14.8267 23.6793C14.5988 23.941 14.3024 24.1339 13.9708 24.2365L8.89069 25.824C7.73739 26.1862 6.69965 26.8454 5.8816 27.7355C5.06355 28.6255 4.49397 29.715 4.23001 30.8946L2.51465 38.6138L3.73489 38.885L5.45025 31.1658C5.66622 30.2006 6.13224 29.3092 6.80155 28.581C7.47087 27.8528 8.31993 27.3135 9.26353 27.0171L11.206 26.4101L15.218 29.849C15.3313 29.946 15.4756 29.9994 15.6248 29.9994C15.774 29.9994 15.9182 29.946 16.0315 29.849L17.6819 28.4344C17.7742 28.6625 17.8997 28.8756 18.0543 29.0671L16.2605 38.6342L17.4891 38.8646L19.1775 29.8598C19.7837 30.0715 20.4483 30.0415 21.0331 29.7761C21.6178 29.5107 22.0779 29.0302 22.3177 28.4344L22.4998 28.5905V36.8744C22.5003 37.3715 22.6981 37.8481 23.0496 38.1996C23.4011 38.5511 23.8777 38.7488 24.3748 38.7494H36.8748C37.3719 38.7488 37.8485 38.5511 38.2 38.1996C38.5515 37.8481 38.7492 37.3715 38.7498 36.8744V28.1244C38.7492 27.6273 38.5515 27.1507 38.2 26.7992C37.8485 26.4477 37.3719 26.25 36.8748 26.2494ZM37.4998 28.1244V29.9994H23.7498V28.1244C23.75 27.9587 23.8159 27.7998 23.933 27.6827C24.0502 27.5655 24.2091 27.4996 24.3748 27.4994H36.8748C37.0405 27.4996 37.1993 27.5655 37.3165 27.6827C37.4337 27.7998 37.4996 27.9587 37.4998 28.1244ZM29.3748 23.7494H31.8748C32.0405 23.7496 32.1993 23.8155 32.3165 23.9327C32.4337 24.0498 32.4996 24.2087 32.4998 24.3744V26.2494H28.7498V24.3744C28.75 24.2087 28.8159 24.0498 28.933 23.9327C29.0502 23.8155 29.2091 23.7496 29.3748 23.7494ZM25.6559 25.4296L27.4998 26.0058V26.2494H24.3748C24.0493 26.2496 23.7295 26.3345 23.4468 26.4958C23.1641 26.657 22.9282 26.8891 22.7623 27.1691L21.4748 26.0655C22.2176 25.8808 22.9188 25.5575 23.5417 25.1126L24.2968 24.5732C24.6674 24.9723 25.1359 25.2676 25.6559 25.4296ZM16.494 22.9606L16.7271 21.5622C17.1892 21.9026 17.6888 22.1888 18.2163 22.415L19.7536 23.0739C19.8314 23.1072 19.9151 23.1244 19.9998 23.1244C20.0844 23.1244 20.1682 23.1072 20.246 23.0739L21.7833 22.415C22.3107 22.1888 22.8104 21.9026 23.2725 21.5622L23.5055 22.9606C23.5367 23.1446 23.5841 23.3254 23.6473 23.501L22.8151 24.0954C21.9936 24.6821 21.0093 24.9975 19.9998 24.9975C18.9902 24.9975 18.0059 24.6821 17.1844 24.0954L16.3523 23.501C16.4154 23.3254 16.4628 23.1446 16.494 22.9606ZM12.4704 11.0439C12.4262 10.9592 12.3776 10.8769 12.3246 10.7974L11.8962 10.1548C11.7417 9.92389 11.6592 9.65228 11.6592 9.37441C11.6592 9.09654 11.7417 8.82493 11.8962 8.594C12.1013 8.28584 12.2398 7.93831 12.303 7.5736C12.3661 7.20889 12.3526 6.83502 12.2631 6.47585L12.1833 6.15664C12.1158 5.88806 12.1292 5.60551 12.2218 5.34453C12.3145 5.08355 12.4823 4.85581 12.7041 4.68997L13.583 4.03079C13.8268 3.84872 14.1228 3.75005 14.4271 3.74941H15.7701C16.1825 3.74893 16.5892 3.65291 16.9583 3.46888L18.2927 2.80169C18.7853 2.55328 19.3378 2.44787 19.8873 2.49743C20.4368 2.54699 20.9614 2.74952 21.4017 3.08207L21.5829 3.21795C22.0434 3.56186 22.6024 3.74823 23.1771 3.74941H25.1623C25.394 3.74917 25.6221 3.80625 25.8264 3.91556C26.0306 4.02488 26.2047 4.18304 26.333 4.37594L26.7543 5.00796C26.9486 5.30007 27.1992 5.5506 27.4913 5.74496L27.794 5.94668C28.0426 6.1116 28.2321 6.35151 28.3351 6.63155C28.438 6.91158 28.449 7.21715 28.3664 7.50384L27.5757 10.271C27.5518 10.3547 27.5202 10.4359 27.4813 10.5138L26.9119 11.6526L26.796 11.5368L26.2177 9.80173C26.1762 9.67729 26.0966 9.56906 25.9902 9.49237C25.8838 9.41568 25.7559 9.37441 25.6248 9.37441C25.0112 9.37641 24.4113 9.1935 23.9033 8.84953C23.3952 8.50555 23.0026 8.01648 22.7766 7.44608L22.4551 6.64233C22.4205 6.55598 22.3672 6.47842 22.2988 6.41532C22.2305 6.35221 22.149 6.30515 22.0602 6.27756C21.9713 6.24998 21.8775 6.24256 21.7854 6.25585C21.6934 6.26914 21.6055 6.30281 21.5281 6.35439L20.5978 6.97459C20.0847 7.31734 19.4814 7.5 18.8644 7.49941H18.5385C17.7455 7.49945 16.9675 7.71495 16.2876 8.12289L15.2427 8.74979C14.3474 9.28729 13.6736 10.1272 13.3432 11.1178L13.2035 11.5368L13.0263 11.714C13.0058 11.7344 12.9865 11.7557 12.9668 11.7768L12.4704 11.0439ZM14.3427 14.8017C14.2988 14.6699 14.2121 14.5565 14.0964 14.4794C13.946 14.3791 13.8196 14.2466 13.7265 14.0916C13.6334 13.9365 13.5759 13.7627 13.558 13.5827C13.5402 13.4028 13.5626 13.2211 13.6234 13.0508C13.6843 12.8805 13.7822 12.7258 13.9101 12.5979L14.1917 12.3164C14.2603 12.2478 14.312 12.1641 14.3427 12.072L14.529 11.5131C14.7651 10.8055 15.2463 10.2056 15.8858 9.82165L16.9307 9.19474C17.4164 8.90338 17.9721 8.74946 18.5385 8.74941H18.8644C19.7282 8.75027 20.5729 8.49453 21.2912 8.01463L21.5805 7.82168L21.616 7.91033C21.9052 8.64056 22.3891 9.27749 23.015 9.75182C23.641 10.2262 24.3851 10.5197 25.1663 10.6005L25.6569 12.0721C25.6875 12.1641 25.7392 12.2478 25.8079 12.3164L26.0894 12.5979C26.2173 12.7258 26.3152 12.8805 26.3761 13.0508C26.437 13.2211 26.4593 13.4028 26.4415 13.5827C26.4237 13.7627 26.3661 13.9365 26.273 14.0916C26.1799 14.2466 26.0536 14.3791 25.9031 14.4794C25.7874 14.5565 25.7008 14.6699 25.6569 14.8017L24.7581 17.4979C24.4788 18.3351 24.0254 19.1036 23.4278 19.7531C22.8302 20.4025 22.1019 20.9181 21.2909 21.266L19.9998 21.8194L18.7087 21.266C17.8976 20.9181 17.1693 20.4025 16.5717 19.753C15.9741 19.1036 15.5208 18.335 15.2414 17.4978L14.3427 14.8017ZM15.6248 28.5512L12.6136 25.9702L14.3437 25.4296C14.8637 25.2676 15.3322 24.9723 15.7027 24.5732L16.4579 25.1126C17.0807 25.5575 17.7819 25.8808 18.5247 26.0655L15.6248 28.5512ZM19.9998 28.7494C19.6717 28.749 19.357 28.6197 19.1234 28.3894C18.8897 28.1591 18.7559 27.8462 18.7507 27.5182L19.9998 26.4476L21.2488 27.5183C21.2436 27.8463 21.1098 28.1591 20.8762 28.3894C20.6425 28.6197 20.3278 28.749 19.9998 28.7494ZM36.8748 37.4994H24.3748C24.2091 37.4992 24.0502 37.4333 23.933 37.3161C23.8159 37.199 23.75 37.0401 23.7498 36.8744V31.2494H37.4998V36.8744C37.4996 37.0401 37.4337 37.199 37.3165 37.3161C37.1993 37.4333 37.0405 37.4992 36.8748 37.4994Z" fill="black"/>
</g>
</g>
</svg>

<svg xmlns="http://www.w3.org/2000/svg" width="40" height="40" fill="none"><g fill="#000"><path d="M16.25 11.875h1.875v1.25H16.25v-1.25ZM21.875 11.875h1.875v1.25h-1.875v-1.25ZM20.03 16.085l.397.132.395-1.186-.397-.132a.623.623 0 0 1-.338-.914l1.073-1.79-1.072-.642-1.073 1.788a1.875 1.875 0 0 0 1.015 2.744ZM17.92 18.738a3.74 3.74 0 0 0 4.16 0l.142-.094-.694-1.04-.141.094a2.494 2.494 0 0 1-2.774 0l-.141-.095-.694 1.04.142.095ZM9.994 38.674l.625-4.999 1.24.155-.625 4.999-1.24-.155Z"/><path d="M36.875 26.25H33.75v-1.876a1.877 1.877 0 0 0-1.875-1.875h-2.5a1.877 1.877 0 0 0-1.875 1.875v.322l-1.471-.46a1.867 1.867 0 0 1-1.29-1.48l-.365-2.186a7.498 7.498 0 0 0 1.57-2.677l.836-2.509a2.472 2.472 0 0 0 .869-2.41l.95-1.901c.074-.147.133-.3.179-.458l.79-2.768a2.649 2.649 0 0 0-1.08-2.94l-.303-.202a1.4 1.4 0 0 1-.39-.39l-.422-.632a2.651 2.651 0 0 0-2.21-1.184h-1.986c-.304 0-.6-.099-.844-.281l-.181-.136a4.196 4.196 0 0 0-4.418-.398l-1.335.667c-.195.097-.41.148-.629.148h-1.343a2.674 2.674 0 0 0-1.594.532l-.879.659a2.652 2.652 0 0 0-.983 2.77l.08.319a1.408 1.408 0 0 1-.195 1.122 2.65 2.65 0 0 0 0 2.947l.429.643c.032.048.061.099.087.151a.64.64 0 0 0 .042.071l.92 1.358a2.472 2.472 0 0 0 .885 2.313l.837 2.51a7.5 7.5 0 0 0 1.57 2.676l-.365 2.185a1.866 1.866 0 0 1-1.29 1.482l-5.08 1.587a6.891 6.891 0 0 0-4.661 5.07l-1.715 7.72 1.22.271 1.715-7.72a5.64 5.64 0 0 1 3.814-4.148l1.942-.607 4.012 3.439a.626.626 0 0 0 .814 0l1.65-1.415a2.5 2.5 0 0 0 .372.633l-1.793 9.567 1.228.23 1.688-9.004a2.498 2.498 0 0 0 3.14-1.426l.183.156v8.284a1.877 1.877 0 0 0 1.875 1.875h12.5a1.877 1.877 0 0 0 1.875-1.875v-8.75a1.877 1.877 0 0 0-1.875-1.875Zm.625 1.874V30H23.75v-1.875a.626.626 0 0 1 .625-.625h12.5a.626.626 0 0 1 .625.625Zm-8.125-4.375h2.5a.626.626 0 0 1 .625.625v1.875h-3.75v-1.875a.626.626 0 0 1 .625-.625Zm-3.72 1.68 1.845.577v.243h-3.125a1.875 1.875 0 0 0-1.613.92l-1.287-1.104a6.08 6.08 0 0 0 2.067-.952l.755-.54c.37.4.839.695 1.359.857Zm-9.161-2.468.233-1.399c.462.34.962.627 1.49.853l1.537.659a.626.626 0 0 0 .492 0l1.537-.659a7.487 7.487 0 0 0 1.49-.853l.233 1.399c.03.184.078.364.141.54l-.832.594a4.844 4.844 0 0 1-5.63 0l-.833-.594a3.16 3.16 0 0 0 .142-.54ZM12.47 11.044a2.677 2.677 0 0 0-.145-.247l-.429-.642a1.403 1.403 0 0 1 0-1.561 2.662 2.662 0 0 0 .367-2.118l-.08-.32a1.405 1.405 0 0 1 .521-1.466l.879-.66c.244-.181.54-.28.844-.28h1.343c.413-.001.82-.097 1.188-.281l1.335-.667a2.953 2.953 0 0 1 3.109.28l.18.136c.461.344 1.02.53 1.595.531h1.985a1.404 1.404 0 0 1 1.171.627l.421.632c.195.292.445.543.737.737l.303.202a1.403 1.403 0 0 1 .572 1.557l-.79 2.767a1.41 1.41 0 0 1-.095.243l-.57 1.139-.115-.116-.578-1.735a.625.625 0 0 0-.593-.428 3.053 3.053 0 0 1-2.848-1.928l-.322-.804a.625.625 0 0 0-.927-.288l-.93.62a3.115 3.115 0 0 1-1.734.525h-.326c-.793 0-1.57.216-2.25.624l-1.045.627a4.378 4.378 0 0 0-1.9 2.368l-.14.419-.177.177-.06.063-.496-.733Zm1.873 3.758a.625.625 0 0 0-.247-.323 1.223 1.223 0 0 1-.186-1.881l.282-.282a.625.625 0 0 0 .15-.244l.187-.559a3.127 3.127 0 0 1 1.357-1.691l1.045-.627a3.126 3.126 0 0 1 1.607-.446h.326a4.36 4.36 0 0 0 2.427-.734l.29-.193.035.088a4.295 4.295 0 0 0 3.55 2.69l.49 1.472c.032.092.083.176.152.244l.281.282a1.223 1.223 0 0 1-.186 1.881.624.624 0 0 0-.246.323l-.899 2.696a6.254 6.254 0 0 1-3.467 3.768L20 21.819l-1.291-.553a6.254 6.254 0 0 1-3.468-3.768l-.898-2.696Zm1.282 13.75-3.011-2.582 1.73-.54c.52-.162.988-.458 1.359-.857l.755.54a6.08 6.08 0 0 0 2.067.953l-2.9 2.485Zm4.375.197a1.25 1.25 0 0 1-1.25-1.23L20 26.447l1.249 1.07a1.251 1.251 0 0 1-1.25 1.231Zm16.875 8.75h-12.5a.626.626 0 0 1-.625-.625V31.25H37.5v5.625a.625.625 0 0 1-.625.625Z"/></g></svg>
